src/assets/icons/Sc-White.svg

<svg width="24" height="24" viewBox="0 0 24 24" fill="none" xmlns="http://www.w3.org/2000/svg">
<g id="Sc-White">
<g id="Group">
<path id="Vector" d="M12 2C6.48 2 2 6.48 2 12C2 17.52 6.48 22 12 22C17.52 22 22 17.52 22 12C22 6.48 17.52 2 12 2ZM12 20C7.59 20 4 16.41 4 12C4 7.59 7.59 4 12 4C16.41 4 20 7.59 20 12C20 16.41 16.41 20 12 20Z" fill="white"/>
<path id="Vector_2" d="M6.79 14.16C7.27 14.45 7.95 14.68 8.7 14.68C9.37 14.68 9.98 14.37 9.98 13.74C9.98 13.27 9.63 12.99 8.89 12.59C8.04 12.13 7.22 11.5 7.22 10.45C7.22 8.81001 8.64 7.82001 10.4 7.82001C11.39 7.82001 11.96 8.04001 12.31 8.22001L11.77 9.66001C11.51 9.51001 10.93 9.30001 10.27 9.31001C9.45 9.31001 9.03 9.71001 9.03 10.15C9.03 10.62 9.52 10.92 10.21 11.3C11.19 11.8 11.82 12.46 11.82 13.43C11.82 15.23 10.33 16.15 8.53 16.15C7.4 16.14 6.6 15.85 6.22 15.57L6.79 14.16Z" fill="white"/>
<path id="Vector_3" d="M16.9 15.84C16.53 16.02 15.93 16.15 15.23 16.15C13.78 16.15 12.76 15.26 12.76 13.75C12.76 11.66 14.36 10.03 16.59 10.03C17.09 10.03 17.53 10.13 17.79 10.22L17.36 11.55C17.15 11.47 16.91 11.4 16.57 11.4C15.35 11.4 14.58 12.44 14.58 13.55C14.58 14.35 15.1 14.76 15.73 14.76C16.23 14.76 16.59 14.64 16.89 14.52L16.9 15.84Z" fill="white"/>
</g>
</g>
</svg>

<?xml version="1.0" encoding="utf-8"?>
<!-- Generator: Adobe Illustrator 21.0.0, SVG Export Plug-In . SVG Version: 6.00 Build 0)  -->
<svg version="1.1" id="Layer_1" xmlns="http://www.w3.org/2000/svg" xmlns:xlink="http://www.w3.org/1999/xlink" x="0px" y="0px"
	 viewBox="0 0 24 24" style="enable-background:new 0 0 24 24;" xml:space="preserve">
<style type="text/css">
	.st0{fill:#FFFFFF;}
</style>
<path class="st0" d="M12,2C6.5,2,2,6.5,2,12s4.5,10,10,10s10-4.5,10-10S17.5,2,12,2z M12,20c-4.4,0-8-3.6-8-8s3.6-8,8-8s8,3.6,8,8
	S16.4,20,12,20z"/>
<path class="st0" d="M6.8,14.2c0.5,0.3,1.2,0.5,1.9,0.5c0.7,0,1.3-0.3,1.3-0.9c0-0.5-0.3-0.8-1.1-1.1c-0.9-0.5-1.7-1.1-1.7-2.1
	c0-1.6,1.4-2.6,3.2-2.6c1,0,1.6,0.2,1.9,0.4l-0.5,1.4c-0.3-0.2-0.8-0.4-1.5-0.4C9.4,9.3,9,9.7,9,10.1c0,0.5,0.5,0.8,1.2,1.2
	c1,0.5,1.6,1.2,1.6,2.1c0,1.8-1.5,2.7-3.3,2.7c-1.1,0-1.9-0.3-2.3-0.6L6.8,14.2z"/>
<path class="st0" d="M16.9,15.8c-0.4,0.2-1,0.3-1.7,0.3c-1.4,0-2.5-0.9-2.5-2.4c0-2.1,1.6-3.7,3.8-3.7c0.5,0,0.9,0.1,1.2,0.2
	l-0.4,1.3c-0.2-0.1-0.5-0.2-0.8-0.2c-1.2,0-2,1-2,2.2c0,0.8,0.5,1.2,1.1,1.2c0.5,0,0.9-0.1,1.2-0.2L16.9,15.8z"/>
</svg>
